img/icon-github.svg

<svg width="16" height="16" viewBox="0 0 16 16" fill="none" xmlns="http://www.w3.org/2000/svg">
<g clip-path="url(#clip0_227_11)">
<mask id="mask0_227_11" style="mask-type:luminance" maskUnits="userSpaceOnUse" x="0" y="0" width="16" height="16">
<path d="M16 0H0V16H16V0Z" fill="white"/>
</mask>
<g mask="url(#mask0_227_11)">
<path d="M8 0.198242C3.58 0.198242 0 3.78024 0 8.19824C0 11.7336 2.292 14.7316 5.47 15.7882C5.87 15.8636 6.01667 15.6162 6.01667 15.4036C6.01667 15.2136 6.01 14.7102 6.00667 14.0436C3.78133 14.5262 3.312 12.9702 3.312 12.9702C2.948 12.0469 2.422 11.8002 2.422 11.8002C1.69733 11.3042 2.478 11.3142 2.478 11.3142C3.28133 11.3702 3.70333 12.1382 3.70333 12.1382C4.41667 13.3616 5.576 13.0082 6.03333 12.8036C6.10533 12.2862 6.31133 11.9336 6.54 11.7336C4.76333 11.5336 2.896 10.8456 2.896 7.78024C2.896 6.90691 3.206 6.19357 3.71933 5.63357C3.62933 5.43158 3.35933 4.61824 3.78933 3.51624C3.78933 3.51624 4.45933 3.30158 5.98933 4.33624C6.62933 4.15824 7.30933 4.07024 7.98933 4.06624C8.66933 4.07024 9.34933 4.15824 9.98933 4.33624C11.5093 3.30158 12.1793 3.51624 12.1793 3.51624C12.6093 4.61824 12.3393 5.43158 12.2593 5.63357C12.7693 6.19357 13.0793 6.90691 13.0793 7.78024C13.0793 10.8536 11.2093 11.5302 9.42933 11.7269C9.70933 11.9669 9.96933 12.4576 9.96933 13.2069C9.96933 14.2776 9.95933 15.1376 9.95933 15.3976C9.95933 15.6076 10.0993 15.8576 10.5093 15.7776C13.71 14.7282 16 11.7282 16 8.19824C16 3.78024 12.418 0.198242 8 0.198242Z" fill="white"/>
</g>
</g>
<defs>
<clipPath id="clip0_227_11">
<rect width="16" height="16" fill="white"/>
</clipPath>
</defs>
</svg>

<svg width="16" height="16" fill="none" xmlns="http://www.w3.org/2000/svg"><g clip-path="url(#clip0_227_11)"><mask id="a" style="mask-type:luminance" maskUnits="userSpaceOnUse" x="0" y="0" width="16" height="16"><path d="M16 0H0v16h16V0z" fill="#fff"/></mask><g mask="url(#a)"><path d="M8 .198a8 8 0 0 0-8 8 7.999 7.999 0 0 0 5.47 7.59c.4.076.547-.172.547-.384 0-.19-.007-.694-.01-1.36-2.226.482-2.695-1.074-2.695-1.074-.364-.923-.89-1.17-.89-1.17-.725-.496.056-.486.056-.486.803.056 1.225.824 1.225.824.714 1.224 1.873.87 2.33.666.072-.518.278-.87.507-1.07-1.777-.2-3.644-.888-3.644-3.954 0-.873.31-1.586.823-2.146-.09-.202-.36-1.016.07-2.118 0 0 .67-.214 2.2.82a7.67 7.67 0 0 1 2-.27 7.67 7.67 0 0 1 2 .27c1.52-1.034 2.19-.82 2.19-.82.43 1.102.16 1.916.08 2.118.51.56.82 1.273.82 2.146 0 3.074-1.87 3.75-3.65 3.947.28.24.54.73.54 1.48 0 1.07-.01 1.93-.01 2.19 0 .21.14.46.55.38A7.972 7.972 0 0 0 16 8.199a8 8 0 0 0-8-8z" fill="#fff"/></g></g><defs><clipPath id="clip0_227_11"><path fill="#fff" d="M0 0H16V16H0z"/></clipPath></defs></svg>
